media/remove-formatting.svg

<svg width="18" height="16" viewBox="0 0 18 16" xmlns="http://www.w3.org/2000/svg"><path d="M1.27 0l-1.27 1.27 6.97 6.97-2.47 5.76h3l1.57-3.66 5.66 5.66 1.27-1.27-14.45-14.46-.28-.27zm2.73 0v.18l2.82 2.82h2.4l-.72 1.68 2.1 2.1 1.61-3.78h5.79v-3h-14z" fill="#4A4A4A" fill-rule="evenodd"/></svg>

<svg width="18" height="16" viewBox="0 0 18 16" xmlns="http://www.w3.org/2000/svg"><path d="M1.27 0L0 1.27l6.97 6.97L4.5 14h3l1.57-3.66L14.73 16 16 14.73 1.55.27 1.27 0zM4 0v.18L6.82 3h2.4L8.5 4.68l2.1 2.1L12.21 3H18V0H4z" fill="#4A4A4A" fill-rule="evenodd"/></svg>
